X:1
T:Eins Ist Not, 87.87.12.12.11.11
T:Eins Ist Not, 87.87.12.12.11.11
T:Friedrich Layriz, 1849
T:Public Domain Courtesy of the Cyber Hymnal™
C:Friedrich Layriz, 1849
Z:Public Domain
Z:Courtesy of the Cyber Hymnal™
%%score ( 1 2 ) ( 3 4 )
L:1/8
Q:1/4=112
M:4/4
K:C
V:1 treble 
V:2 treble 
V:3 bass 
V:4 bass 
V:1
 [B,E]2 [DF]2 [EG]2 [DG]2 | [CA]2 [DB]2 [Ec]2 [Ec]2 | [FA]2 [EG]2 [DF]2 [EA]2 | %3
 [DG]2 [DF]2 [B,E]4 | [B,E]2 [DF]2 [EG]2 [DG]2 | [CA]2 [DB]2 [Ec]2 [Ec]2 | %6
 [FA]2 [EG]2 [DF]2 [EA]2 | [DG]2 [DF]2 [B,E]4 ||[M:6/4] [CG]2 | %9
 [DG]2 [B,D]2 [CF]2 [DF]2 [CE]2 [CG]2 | [CA]3 [B,G] [CF]2 [DF]2 [CE]2 [EG]2 | %11
 [DG]2 [B,D]2 [CF]2 [DF]2 [CE]2 [CG]2 | [CA]3 [B,G] [CF]2 [DF]2 [CE]2 [EG]2 | %13
 [DG]2 [CE]2 [A,F]2 [CG]3 [CA] [CG]2 | [Cc]2 [EB]2 A2 [EG]4 [EG]2 | %15
 [Ge]2 [Fd]2 [Ec]2 [EB]2 [CA]2 [EG]2 | [EA]2 [DG]2 F2 [B,E]4 |] %17
V:2
 x8 | x8 | x8 | x8 | x8 | x8 | x8 | x8 ||[M:6/4] x2 | x12 | x12 | x12 | x12 | x12 | x4 (CD) x6 | %15
 x12 | x4 (DC) x4 |] %17
V:3
 [E,^G,]2 [D,A,]2 [C,C]2 [B,,=G,]2 | [A,,E,]2 [G,,G,]2 [C,G,]2 [C,C]2 | %2
 [F,C]2 [C,C]2 [D,A,]2 [A,,C]2 | [B,,B,]2 [D,A,]2 [E,^G,]4 | [E,^G,]2 [D,A,]2 [C,C]2 [B,,=G,]2 | %5
 [A,,E,]2 [G,,G,]2 [C,G,]2 [C,C]2 | [F,C]2 [C,C]2 [D,A,]2 [A,,C]2 | [B,,B,]2 [D,A,]2 [E,^G,]4 || %8
[M:6/4] [C,E,]2 | [B,,G,]2 [G,,B,]2 [A,,A,]2 [B,,G,]2 [C,G,]2 [C,E,]2 | %10
 [F,,F,]3 [G,,D,] [A,,A,]2 [B,,G,]2 [C,G,]2 [C,C]2 | %11
 [B,,G,]2 [G,,B,]2 [A,,A,]2 [B,,G,]2 [C,G,]2 [C,E,]2 | %12
 [F,,F,]3 [G,,D,] [A,,A,]2 [B,,G,]2 [C,G,]2 [C,C]2 | [B,,G,]2 [C,G,]2 [D,F,]2 [C,E,]3 F, [C,E,]2 | %14
 [A,,A,]2 [E,^G,]2 (A,B,) [C,C]4 [E,B,]2 | [C,C]2 [D,A,]2 [A,,A,]2 [E,^G,]2 [F,A,]2 [C,C]2 | %16
 [A,,C]2 [B,,B,]2 [D,A,]2 [E,^G,]4 |] %17
V:4
 x8 | x8 | x8 | x8 | x8 | x8 | x8 | x8 ||[M:6/4] x2 | x12 | x12 | x12 | x12 | x9 F, x2 | %14
 x4 F,2 x6 | x12 | x10 |] %17

